findly-builder/apps/searchassist/src/assets/images/icons/Transfer_to_live_agent.svg

<?xml version="1.0" encoding="UTF-8"?>
<svg width="16px" height="16px" viewBox="0 0 16 16" version="1.1" xmlns="http://www.w3.org/2000/svg" xmlns:xlink="http://www.w3.org/1999/xlink">
    <title>Icon / 16x16 / Banking Bot / Agent Transfer</title>
    <g id="Page-1" stroke="none" stroke-width="1" fill="none" fill-rule="evenodd">
        <g id="icons" transform="translate(-60.000000, -17.000000)">
            <g id="Icon-/-16x16-/-Banking-Bot-/-Agent-Transfer" transform="translate(60.000000, 17.000000)">
                <g id="Agent-Transfer">
                    <rect id="agent-transfer" fill-opacity="0" fill="#D8D8D8" x="0" y="0" width="16" height="16"></rect>
                    <path d="M14,12.2580509 C14,13.1960515 13.2586103,13.9608913 12.329854,13.998547 L12.258051,14 L11.649758,14 C10.7117574,14 9.94691764,13.2586103 9.9092619,12.3298539 L9.90780894,12.2580509 L9.90780894,10.4331719 C9.90780894,9.49517133 10.6491987,8.73033157 11.577955,8.69267583 L12.949,8.691 L12.9492739,8 C12.9492739,5.26659153 10.7334085,3.05072617 8,3.05072617 C5.30119168,3.05072617 3.10690695,5.21084872 3.05178787,7.89645186 L3.05,8.691 L4.35024207,8.69122286 C5.28824268,8.69122286 6.05308244,9.43261261 6.09073818,10.3613689 L6.09219115,10.4331719 L6.09219115,12.2580509 C6.09219115,13.1960515 5.3508014,13.9608913 4.42204508,13.998547 L4.35024207,14 L3.74194908,14 C2.80394846,14 2.03910871,13.2586103 2.00145297,12.3298539 L2,12.2580509 L2,8 C2,4.68629148 4.68629154,2 8,2 C11.2772942,2 13.9408849,4.6275765 13.9990296,7.89098685 L14,12.2580509 Z M12.9495517,9.74188176 L11.649758,9.74194903 C11.284604,9.74194903 10.9855823,10.0250946 10.9602706,10.3838076 L10.9585351,10.4331719 L10.9585351,12.2580509 C10.9585351,12.6232049 11.2416806,12.9222267 11.6003937,12.9475383 L11.649758,12.9492738 L12.258051,12.9492738 C12.623205,12.9492738 12.9222267,12.6661283 12.9475384,12.3074152 L12.9492739,12.2580509 L12.9495517,9.74188176 Z M4.35024207,9.74194903 L3.05072617,9.74188176 L3.05072617,12.2580509 C3.05072617,12.6232049 3.33387169,12.9222267 3.69258476,12.9475383 L3.74194908,12.9492738 L4.35024207,12.9492738 C4.71539603,12.9492738 5.01441781,12.6661283 5.03972944,12.3074152 L5.04146498,12.2580509 L5.04146498,10.4331719 C5.04146498,10.068018 4.75831945,9.7689962 4.39960639,9.74368457 L4.35024207,9.74194903 Z" id="agent-transfer" fill="#26344A"></path>
                </g>
            </g>
        </g>
    </g>
</svg>

<svg width="16" height="16" xmlns="http://www.w3.org/2000/svg"><g fill="none" fill-rule="evenodd"><path d="M0 0h16v16H0z"/><path d="M14 12.258a1.74 1.74 0 0 1-1.67 1.74l-.072.002h-.608a1.742 1.742 0 0 1-1.74-1.67l-.002-.072v-1.825a1.74 1.74 0 0 1 1.67-1.74l1.371-.002V8a4.95 4.95 0 0 0-9.897-.104l-.002.795h1.3c.938 0 1.703.742 1.74 1.67l.002.072v1.825a1.74 1.74 0 0 1-1.67 1.74L4.35 14h-.608a1.742 1.742 0 0 1-1.74-1.67L2 12.258V8a6 6 0 0 1 11.999-.109L14 12.258Zm-1.05-2.516h-1.3a.691.691 0 0 0-.69.642l-.001.05v1.824c0 .365.283.664.641.69l.05.001h.608a.691.691 0 0 0 .69-.642l.001-.049V9.742Zm-8.6 0h-1.3v2.516c0 .365.284.664.643.69l.049.001h.608a.691.691 0 0 0 .69-.642l.001-.049v-1.825a.691.691 0 0 0-.641-.69l-.05-.001Z" fill="#26344A"/></g></svg>
